X:1
T:Jesus, Help Me
T:Jesus, Help Me
T:Henry Tucker
T:Frances Jane (Fanny) Crosby, 1866
T:Public Domain Courtesy of the Cyber Hymnal™
T:Public Domain Courtesy of the Cyber Hymnal™
C:Henry Tucker
Z:Public Domain
Z:Courtesy of the Cyber Hymnal™
%%score ( 1 2 ) ( 3 4 )
L:1/8
Q:1/4=105
M:2/4
K:Ab
V:1 treble 
V:2 treble 
V:3 bass 
V:4 bass 
V:1
 [Ec]2 (B>A) | [DF]2 [CE]2 | [DF]2 (Ac) | [Ec]2 [EB]2 | [Ec]2 (B>A) | [DF]2 [CE]2 | %6
w: 1.~Je- sus, *|help me,|I am *|wear- y,|Let me *|hold Thy|
w: 2.~Je- sus, *|help me,|I am *|faint- ing,|’Neath the *|de- sert’s|
w: 3.~Je- sus, *|help me,|I am *|sink- ing,|In the *|cold and|
 ([DF]<[FA]) ([EA][DB]) | [CA]4 | [Ec]2 (B>A) | [DF]2 [CE]2 | [DF]2 (Ac) | [Ec]2 [EB]2 | %12
w: hand * in *|mine;|For the *|stream of|liv- ing *|wa- ter,|
w: burn- * ing *|sky;|Lead to *|past- ures|cool and *|frag- rant,|
w: chill- * y *|wave;|Give me *|strength, my|faith in- *|creas- ing,|
 [Ec]2 (B>A) | [DF]2 [CE]2 | ([DF]<[FA]) ([EA][DB]) | [CA]4 | [Ed]2 (e>d) | ([Ec]>[DB]) [CA]2 | %18
w: In a *|thirst- y|land * I *|pine;|O my *|Fa- * ther,|
w: There my *|ev- ery|want * sup- *|ply;|Shade me *|with * Thy|
w: Thou a- *|lone hast|power * to *|save.|Let my *|soul * be|
 [Ed]2 (e>d) | ([Ec]>[DB]) [CA]2 | [Ec]3 [EB] | [EA]3 [DG] | [CA]2 (Bc) | [EB]4 | [Ec]2 (B>A) | %25
w: do not *|leave * me,|In this|dark and|dread- ful *|hour,|Fold me *|
w: wings e- *|ter- * nal,|Let me|feel Thee|ev- er *|near;|Thou canst *|
w: filled with *|rap- * ture,|Let my|hope be|stayed in *|Thee,|Let me *|
 [DF]2 [CE]2 | [DF]2 (Ac) | [Ec]2 [EB]2 | [Ec]2 (B>A) | [DF]2 [CE]2 | ([DF]<[FA]) ([EA][DB]) | %31
w: in Thy|arms of *|mer- cy,|Keep me *|from the|tempt- * er’s *|
w: whis- per|words of *|com- fort,|Thou canst *|dry the|fall- * ing *|
w: bear my|cross with *|pa- tience,|Till I *|sleep and|wake * with *|
 [CA]4 |] %32
w: pow’r.|
w: tear.|
w: Thee.|
V:2
 x2 D2 | x4 | x2 E2 | x4 | x2 D2 | x4 | x4 | x4 | x2 D2 | x4 | x2 E2 | x4 | x2 D2 | x4 | x4 | x4 | %16
 x2 E2 | x4 | x2 E2 | x4 | x4 | x4 | x2 =D2 | x4 | x2 D2 | x4 | x2 E2 | x4 | x2 D2 | x4 | x4 | %31
 x4 |] %32
V:3
 [A,,E,]2 [A,,F,]2 | [A,,A,]2 [A,,A,]2 | [D,A,]2 A,2 | [E,A,]2 [E,G,]2 | (A,E,) [A,,F,]2 | %5
 [A,,A,]2 [A,,A,]2 | [D,A,]2 (CG,) | [A,,A,]4 | [A,,E,]2 [A,,F,]2 | [A,,A,]2 [A,,A,]2 | %10
 [D,A,]2 A,2 | [E,A,]2 [E,G,]2 | (A,E,) [A,,F,]2 | [A,,A,]2 [A,,A,]2 | [D,A,]2 (CG,) | [A,,A,]4 | %16
 [E,B,]2 (C>B,) | [A,,A,]2 [A,,A,]2 | [E,B,]2 (C>B,) | [A,,A,]2 [A,,E,]2 | [A,,A,]3 [A,,G,] | %21
 [C,A,]3 [E,B,] | [F,A,]2 [B,,A,]2 | [E,G,]4 | [A,,E,]2 [A,,F,]2 | [A,,A,]2 [A,,A,]2 | %26
 [D,A,]2 A,2 | [E,A,]2 [E,G,]2 | (A,E,) [A,,F,]2 | [A,,A,]2 [A,,A,]2 | [D,A,]2 (CG,) | [A,,A,]4 |] %32
V:4
 x4 | x4 | x2 (C,A,,) | x4 | A,,2 x2 | x4 | x2 E,2 | x4 | x4 | x4 | x2 (C,A,,) | x4 | A,,2 x2 | %13
 x4 | x2 E,2 | x4 | x2 E,2 | x4 | x2 E,2 | x4 | x4 | x4 | x4 | x4 | x4 | x4 | x2 (C,A,,) | x4 | %28
 A,,2 x2 | x4 | x2 E,2 | x4 |] %32

